X: 85
M:4/4
L:1/8
K:G
g2 ag fgag|fdde fdcA|Gggf g2 fg|agfg agga|
bgaf gbag|fdde f2 fg|afge (3fga ge|dcde fdcA||

